src/img/seller-3.svg

<svg width="229" height="47" viewBox="0 0 229 47" fill="none" xmlns="http://www.w3.org/2000/svg">
<g clip-path="url(#clip0_1412_881)">
<path d="M71.8094 36.8111H52.6094V10.6211H57.4794V31.9411H71.8094V36.8111Z" fill="white"/>
<path d="M96.5107 23.7401C96.5107 28.7301 92.5007 32.7401 87.5107 32.6801C82.5207 32.6801 78.5107 28.6701 78.5707 23.6801C78.5707 18.7501 82.5807 14.7401 87.5707 14.7401C92.5607 14.7401 96.5107 18.7501 96.5107 23.7401ZM101.381 23.7401V10.6201H96.5707V13.2001C90.7807 8.21008 82.0707 8.90008 77.0907 14.6901C72.1007 20.4801 72.7907 29.1901 78.5807 34.1701C83.7407 38.5801 91.4207 38.5801 96.5707 34.1701V36.7501H101.381V23.7401Z" fill="white"/>
<path d="M111.691 15.4911V20.9911H121.661V25.8011H111.691V36.8011H106.881V10.6211H125.331V15.4911H111.691Z" fill="white"/>
<path d="M154.21 23.7411C154.21 31.3611 148.02 37.5511 140.4 37.5511C132.78 37.5511 126.59 31.3611 126.59 23.6811C126.59 16.0011 132.78 9.87109 140.4 9.87109C148.02 9.93109 154.21 16.1211 154.21 23.7411ZM140.4 14.7411C135.41 14.7411 131.4 18.7511 131.4 23.6811C131.4 28.6111 135.41 32.6811 140.34 32.6811C145.27 32.6811 149.34 28.6711 149.34 23.7411C149.34 18.8111 145.39 14.7411 140.4 14.7411Z" fill="white"/>
<path d="M178.86 18.6411C178.86 14.2311 175.25 10.6211 170.84 10.6211H158.52V36.8111H163.33V26.6711H166.6L173.13 36.8111H178.86L172.27 26.4911C176.05 25.8611 178.86 22.5411 178.86 18.6411ZM170.84 21.7911H163.33V15.4911H170.84C172.56 15.3211 174.11 16.6411 174.28 18.3611C174.45 20.0811 173.13 21.6311 171.42 21.8011H170.85L170.84 21.7911Z" fill="white"/>
<path d="M187.97 15.4911V20.9911H197.94V25.8011H187.97V31.9311H201.61V36.8011H183.16V10.6211H201.61V15.4911H187.97Z" fill="white"/>
<path d="M186.311 8.10031V3.86031C186.311 3.86031 190.611 1.51031 190.721 1.45031C191.351 1.11031 192.041 0.880312 192.731 0.820312C193.471 0.880312 194.161 1.11031 194.791 1.45031C194.911 1.51031 199.201 3.80031 199.201 3.80031V8.04031C199.201 8.04031 194.041 5.17031 193.641 5.00031C193.351 4.83031 193.011 4.77031 192.721 4.77031C192.381 4.77031 192.091 4.88031 191.801 5.00031C191.511 5.17031 186.301 8.09031 186.301 8.09031L186.311 8.10031Z" fill="white"/>
<path d="M228.2 15.4911H219.55V36.8111H214.74V15.4911H206.09V10.6211H228.21V15.4911H228.2Z" fill="white"/>
<path d="M0 1.2207V46.2107H44.99V1.2207H0ZM39.03 18.1807L36.68 20.5907C35.76 21.5107 34.22 21.5607 33.24 20.7007L35.65 18.2907C36.57 17.3707 38.06 17.3207 39.03 18.1807ZM30.95 22.8807C31.87 21.9607 33.41 21.9107 34.39 22.7707L30.09 27.0707C29.17 27.9907 27.63 28.0407 26.65 27.1807L30.95 22.8807ZM26.54 25.1707L25.74 25.9707C24.82 25.0007 24.88 23.4507 25.85 22.4707L26.65 21.6707C27.51 22.7007 27.45 24.2507 26.54 25.1707ZM37.26 14.4507L36.4 15.2507C35.48 16.1707 33.94 16.2207 32.96 15.3607L33.76 14.5607C34.73 13.5907 36.28 13.5907 37.26 14.4507ZM31.99 10.8407L32.79 10.0407C33.71 11.0107 33.65 12.5607 32.68 13.5407L31.88 14.3407C31.02 13.3107 31.02 11.8207 31.99 10.8407ZM34.51 17.2007C34.51 17.2007 31.82 19.8907 30.9 20.8107C29.98 21.7307 28.44 21.7807 27.46 20.9207L31.07 17.3107C31.99 16.3407 33.48 16.3407 34.51 17.2007ZM29.93 16.1707L29.3 17.1407C28.21 16.3407 27.98 14.8507 28.73 13.7007L29.36 12.7307C30.45 13.5307 30.68 15.0207 29.93 16.1707ZM27.12 10.1507L29.53 7.7407C30.45 8.7107 30.39 10.2607 29.42 11.2407L27.07 13.5907C26.15 12.6207 26.15 11.1307 27.13 10.1507H27.12ZM23.8 8.0907L25.29 6.6007C26.15 7.5707 26.09 9.1207 25.18 10.0407L23.69 11.5307C22.83 10.5607 22.83 9.0707 23.8 8.0907ZM25.18 15.4807L23.69 16.9707C22.83 16.0007 22.83 14.4507 23.8 13.5307L25.29 12.0407C26.15 13.0107 26.09 14.5007 25.18 15.4807ZM24.95 18.0007C25.92 17.0307 27.41 17.0307 28.45 17.8907L24.44 21.9007C23.47 22.8707 21.86 22.8707 20.89 21.9007L16.88 17.8907C17.85 16.9707 19.4 17.0307 20.38 18.0007C20.95 18.5707 22.73 20.2907 22.73 20.2907L24.97 18.0007H24.95ZM19.33 25.9707L18.53 25.1707C17.61 24.2507 17.56 22.7107 18.42 21.7307L19.22 22.5307C20.14 23.5007 20.19 24.9907 19.33 25.9707ZM17.73 21.0407C16.76 21.9607 15.21 21.9007 14.29 20.9307L13.49 20.1307C14.46 19.2107 16.01 19.2707 16.93 20.2407L17.73 21.0407ZM19.79 6.6007L21.28 8.0907C22.2 9.0107 22.25 10.5507 21.39 11.5307L19.9 10.0407C18.98 9.1207 18.93 7.6307 19.79 6.6007ZM15.55 7.8007L21.34 13.5907C22.26 14.5107 22.31 16.0507 21.45 17.0307L15.66 11.2407C14.74 10.2707 14.69 8.7807 15.55 7.8007ZM15.78 12.7307L16.41 13.7007C17.15 14.7907 16.93 16.3407 15.84 17.1407L15.21 16.1707C14.47 15.0207 14.69 13.5307 15.78 12.7307ZM11.54 10.1507L12.57 10.6707C13.77 11.2407 14.35 12.6207 13.89 13.8807L12.86 13.4207C11.6 12.8507 11.03 11.4107 11.54 10.1507ZM11.14 14.4507L14.75 18.0607C13.78 18.9207 12.23 18.9207 11.31 17.9507L7.64 14.3407C8.67 13.4807 10.22 13.4807 11.14 14.4507ZM6.5 27.5207H5.41C5.47 26.1407 6.61 25.1107 7.93 25.1107H8.96C8.96 26.4307 7.81 27.5207 6.5 27.5207ZM5.3 21.3907H6.33C7.71 21.3907 8.79 22.4207 8.91 23.8007H7.88C6.5 23.8007 5.36 22.7107 5.3 21.3907ZM10.92 28.5007L10.18 29.2407C9.26 28.2707 9.32 26.7207 10.24 25.7407L10.98 25.0007C11.9 26.0307 11.9 27.5807 10.92 28.5007ZM10.35 22.5407L6.05 18.2407C7.02 17.3807 8.57 17.3807 9.49 18.3507L13.79 22.6507C12.82 23.5107 11.33 23.4507 10.35 22.5407ZM15.91 24.6607L18.32 27.0707C17.35 27.9907 15.8 27.9307 14.88 26.9607L12.47 24.5507C13.44 23.6907 14.93 23.7507 15.91 24.6607ZM14.76 31.1407C14.76 31.1407 14.07 30.7407 13.79 30.6207C12.59 29.9907 12.13 28.5007 12.7 27.3007L13.62 27.8207C14.82 28.4507 15.34 29.8807 14.77 31.1407H14.76ZM21.18 40.8207C19.58 40.7107 18.03 40.4807 16.48 40.0207C16.71 39.2807 17.45 38.8707 18.2 39.0507C19.17 39.2207 20.15 39.3907 21.18 39.4507V31.6007L18.2 28.6207C18.72 28.1007 19.58 28.1007 20.09 28.6207L21.18 29.7107V26.5607C21.18 25.0707 22.38 23.8707 23.87 23.8707V29.7207L24.96 28.6307C25.48 28.1107 26.34 28.1107 26.85 28.6307L23.87 31.6107V38.0907C23.87 39.6407 22.67 40.8407 21.18 40.8407V40.8207ZM25.13 40.7107C25.07 40.7107 25.02 40.7107 24.96 40.7707C24.22 40.8307 23.58 40.2507 23.53 39.5107H23.87C24.84 39.4507 25.88 39.2807 26.85 39.1107C27.59 38.9407 28.28 39.3407 28.57 40.0307C27.42 40.3207 26.28 40.5507 25.13 40.7207V40.7107ZM31.26 30.6207L30.34 31.1407C29.77 29.9407 30.23 28.4507 31.43 27.8207L32.35 27.3007C32.92 28.5007 32.46 29.9907 31.26 30.6207ZM34.87 29.3007L34.13 28.5607C33.16 27.5907 33.16 26.0407 34.07 25.0607L34.81 25.8107C35.73 26.7307 35.78 28.2707 34.87 29.3107V29.3007ZM38.54 27.5207C37.16 27.5207 36.08 26.4907 36.02 25.1107H37.11C38.49 25.1107 39.57 26.1407 39.63 27.5207H38.54ZM37.22 23.8007H36.13C36.19 22.4207 37.33 21.3907 38.65 21.3907H39.74C39.68 22.7107 38.59 23.8007 37.22 23.8007Z" fill="white"/>
</g>
<defs>
<clipPath id="clip0_1412_881">
<rect width="228.2" height="45.39" fill="white" transform="translate(0 0.820312)"/>
</clipPath>
</defs>
</svg>

<svg xmlns="http://www.w3.org/2000/svg" width="229" height="47" fill="none" xmlns:v="https://vecta.io/nano"><g clip-path="url(#A)" fill="#fff"><path d="M71.809 36.811h-19.2v-26.19h4.87v21.32h14.33v4.87zM96.511 23.74c0 4.99-4.01 9-9 8.94-4.99 0-9-4.01-8.94-9 0-4.93 4.01-8.94 9-8.94s8.94 4.01 8.94 9zm4.87 0V10.62h-4.81v2.58c-5.79-4.99-14.5-4.3-19.48 1.49-4.99 5.79-4.3 14.5 1.49 19.48a13.89 13.89 0 0 0 17.99 0v2.58h4.81V23.74zm10.31-8.249v5.5h9.97v4.81h-9.97v11h-4.81v-26.18h18.45v4.87h-13.64zm42.519 8.25c0 7.62-6.19 13.81-13.81 13.81s-13.81-6.19-13.81-13.87 6.19-13.81 13.81-13.81c7.62.06 13.81 6.25 13.81 13.87zm-13.81-9c-4.99 0-9 4.01-9 8.94s4.01 9 8.94 9 9-4.01 9-8.94-3.95-9-8.94-9zm38.46 3.9c0-4.41-3.61-8.02-8.02-8.02h-12.32v26.19h4.81v-10.14h3.27l6.53 10.14h5.73l-6.59-10.32c3.78-.63 6.59-3.95 6.59-7.85zm-8.02 3.15h-7.51v-6.3h7.51c1.72-.17 3.27 1.15 3.44 2.87s-1.15 3.27-2.86 3.44h-.57l-.01-.01zm17.13-6.3v5.5h9.97v4.81h-9.97v6.13h13.64v4.87h-18.45v-26.18h18.45v4.87h-13.64zM186.311 8.1V3.86l4.41-2.41c.63-.34 1.32-.57 2.01-.63.74.06 1.43.29 2.06.63l4.41 2.35v4.24L193.641 5c-.29-.17-.63-.23-.92-.23-.34 0-.63.11-.92.23l-5.5 3.09.01.01zm41.889 7.391h-8.65v21.32h-4.81v-21.32h-8.65v-4.87h22.12v4.87h-.01zM0 1.221v44.99h44.99V1.221H0zm39.03 16.96l-2.35 2.41c-.92.92-2.46.97-3.44.11l2.41-2.41c.92-.92 2.41-.97 3.38-.11zm-8.08 4.7c.92-.92 2.46-.97 3.44-.11l-4.3 4.3c-.92.92-2.46.97-3.44.11l4.3-4.3zm-4.41 2.29l-.8.8c-.92-.97-.86-2.52.11-3.5l.8-.8c.86 1.03.8 2.58-.11 3.5zm10.72-10.72l-.86.8c-.92.92-2.46.97-3.44.11l.8-.8c.97-.97 2.52-.97 3.5-.11zm-5.27-3.61l.8-.8c.92.97.86 2.52-.11 3.5l-.8.8c-.86-1.03-.86-2.52.11-3.5zm2.52 6.36l-3.61 3.61c-.92.92-2.46.97-3.44.11l3.61-3.61c.92-.97 2.41-.97 3.44-.11zm-4.58-1.03l-.63.97c-1.09-.8-1.32-2.29-.57-3.44l.63-.97c1.09.8 1.32 2.29.57 3.44zm-2.81-6.02l2.41-2.41c.92.97.86 2.52-.11 3.5l-2.35 2.35a2.43 2.43 0 0 1 .06-3.44h-.01zm-3.32-2.06l1.49-1.49c.86.97.8 2.52-.11 3.44l-1.49 1.49a2.5 2.5 0 0 1 .11-3.44zm1.38 7.39l-1.49 1.49c-.86-.97-.86-2.52.11-3.44l1.49-1.49c.86.97.8 2.46-.11 3.44zm-.23 2.52c.97-.97 2.46-.97 3.5-.11l-4.01 4.01a2.53 2.53 0 0 1-3.55 0l-4.01-4.01c.97-.92 2.52-.86 3.5.11l2.35 2.29 2.24-2.29h-.02zm-5.62 7.97l-.8-.8c-.92-.92-.97-2.46-.11-3.44l.8.8c.92.97.97 2.46.11 3.44zm-1.6-4.93c-.97.92-2.52.86-3.44-.11l-.8-.8c.97-.92 2.52-.86 3.44.11l.8.8zm2.06-14.44l1.49 1.49c.92.92.97 2.46.11 3.44l-1.49-1.49c-.92-.92-.97-2.41-.11-3.44zm-4.24 1.2l5.79 5.79c.92.92.97 2.46.11 3.44l-5.79-5.79c-.92-.97-.97-2.46-.11-3.44zm.23 4.93l.63.97c.74 1.09.52 2.64-.57 3.44l-.63-.97c-.74-1.15-.52-2.64.57-3.44zm-4.24-2.58l1.03.52a2.57 2.57 0 0 1 1.32 3.21l-1.03-.46c-1.26-.57-1.83-2.01-1.32-3.27zm-.4 4.3l3.61 3.61c-.97.86-2.52.86-3.44-.11l-3.67-3.61c1.03-.86 2.58-.86 3.5.11zM6.5 27.521H5.41a2.52 2.52 0 0 1 2.52-2.41h1.03c0 1.32-1.15 2.41-2.46 2.41zm-1.2-6.13h1.03c1.38 0 2.46 1.03 2.58 2.41H7.88c-1.38 0-2.52-1.09-2.58-2.41zm5.62 7.11l-.74.74c-.92-.97-.86-2.52.06-3.5l.74-.74c.92 1.03.92 2.58-.06 3.5zm-.57-5.96l-4.3-4.3c.97-.86 2.52-.86 3.44.11l4.3 4.3c-.97.86-2.46.8-3.44-.11zm5.56 2.12l2.41 2.41c-.97.92-2.52.86-3.44-.11l-2.41-2.41c.97-.86 2.46-.8 3.44.11zm-1.15 6.48l-.97-.52c-1.2-.63-1.66-2.12-1.09-3.32l.92.52c1.2.63 1.72 2.06 1.15 3.32h-.01zm6.42 9.68c-1.6-.11-3.15-.34-4.7-.8.23-.74.97-1.15 1.72-.97l2.98.4v-7.85l-2.98-2.98a1.34 1.34 0 0 1 1.89 0l1.09 1.09v-3.15c0-1.49 1.2-2.69 2.69-2.69v5.85l1.09-1.09a1.34 1.34 0 0 1 1.89 0l-2.98 2.98v6.48c0 1.55-1.2 2.75-2.69 2.75v-.02zm3.95-.11c-.06 0-.11 0-.17.06-.74.06-1.38-.52-1.43-1.26h.34c.97-.06 2.01-.23 2.98-.4.74-.17 1.43.23 1.72.92l-3.44.69v-.01zm6.13-10.09l-.92.52c-.57-1.2-.11-2.69 1.09-3.32l.92-.52c.57 1.2.11 2.69-1.09 3.32zm3.61-1.32l-.74-.74c-.97-.97-.97-2.52-.06-3.5l.74.75c.92.92.97 2.46.06 3.5v-.01zm3.67-1.78c-1.38 0-2.46-1.03-2.52-2.41h1.09c1.38 0 2.46 1.03 2.52 2.41h-1.09zm-1.32-3.72h-1.09a2.52 2.52 0 0 1 2.52-2.41h1.09a2.53 2.53 0 0 1-2.52 2.41z"/></g><defs><clipPath id="A"><path fill="#fff" transform="translate(0 .82)" d="M0 0h228.2v45.39H0z"/></clipPath></defs></svg>
